X: 052
T: The Ploughmans Dance
C: attr. John French (1753-1803)
R: reel
B: "John French Collection", John French ed. p.5 #2
S: http://www.heallan.com/french.asp
Z: 2012 John Chambers <jc:trillian.mit.edu>
M: 4/4
L: 1/8
K: D
|: A,DCE DEFG | AFdB AFED | B,E^DF EFGA | BGed cBAG |
   FDCE DEFG | AFdB AFED | GBAG FAdF | EDEF D2D2 :|
|: defd cdec | BcdB AFTED | GBeG FAdF | EB,GE DCB,A, |
[1 defd cdec | BcdB AFTED | GBAG FAGF | TEDEF D2D2 :|
[2 dfaf dAFA | Bgec dAFD | GBAG FAdF | TEDEF D2z2 |]

%%sep 2 1 500
%%sep 1 1 500

